src/blocks/sprite-svg/svg/link-broken.svg

<svg viewBox="0 0 24 24" fill="none" xmlns="http://www.w3.org/2000/svg">
<path d="M7.47129 10.2832L5.23783 12.5166C4.4037 13.3507 3.92402 14.4857 3.93279 15.6785C3.94155 16.8713 4.41074 18.0132 5.28445 18.86C6.13114 19.7337 7.27326 20.2029 8.46588 20.2116C9.68571 20.2206 10.7938 19.7679 11.628 18.9338L13.8614 16.7003M16.7143 13.9021L18.9477 11.6686C19.7819 10.8345 20.2615 9.69953 20.2528 8.50672C20.244 7.3139 19.7748 6.17201 18.9011 5.32528C18.0546 4.4788 16.9127 4.00959 15.7199 4.00082C14.5271 3.99206 13.3919 4.44451 12.5578 5.27866L10.3243 7.51212M8.70588 15.4198L15.4062 8.71942M5.33644 5.21711L4.23013 4.11081M9.17794 3.26837L9.35893 1.44484M1.72201 9.08142L3.61267 8.89377M18.9411 18.5057L20.0474 19.612M15.0996 20.4545L14.9186 22.278M22.5555 14.6414L20.6649 14.8291" stroke-width="2" stroke-linecap="round" stroke-linejoin="round"/>
</svg>

<svg xmlns="http://www.w3.org/2000/svg" viewBox="0 0 24 24" fill="none"><path  stroke-linecap="round" stroke-linejoin="round" stroke-width="2" d="m7.47 10.28-2.23 2.24a4.43 4.43 0 0 0 .04 6.34 4.45 4.45 0 0 0 6.35.07l2.23-2.23m2.85-2.8 2.24-2.23a4.43 4.43 0 0 0-.05-6.34 4.54 4.54 0 0 0-6.34-.05L10.32 7.5m-1.61 7.91 6.7-6.7M5.34 5.22l-1.11-1.1m4.95-.85.18-1.83M1.72 9.08l1.9-.19m15.32 9.62 1.1 1.1m-4.94.84-.18 1.83m7.64-7.64-1.9.19"/></svg>
